X:247
T:Joan Sanderson. (p)1686.PLFD.247
T:Cushion Dance,The. (p)1686.PLFD.247
M:3/4
L:1/4
Q:3/4=60
S:Playford, Dancing Master,7th Ed.,1686
O:England
H:1686.
Z:Chris Partington.
K:Bb
G"_This strain twice"d>c|B>cA|GGD|G3:||
M:6/4
L:1/4
Q:3/4=100
G2"_This once"dd2c|d>edc2A|B2Bc>dB|A2GG2|
|:G|"_Play this as oft as required"A>BA^F2F|G>AGD2D|B2Bc>dB|A2GG3:|
